icon-themes/sifr_svg/cmd/sc_fontworkshapetype.fontwork-open-circle-curve.svg

<svg viewBox="0 0 16 16" xmlns="http://www.w3.org/2000/svg"><g fill="#555753"><path d="m8.1289062 1c-3.9738005 0-7.5277802 2-8.1289062 5l4.0273438 2c.335576-1.272609 1.6275759-3 4.1015624-3 2.4739878 0 4.1015628 1.535633 4.1015628 3l3.769531-2c-1.026289-2.990343-4.298525-5-7.8710938-5zm-8.1289062 9v6h16v-6zm2 2h12v2h-12z"/><path d="m2 12v2h12v-2z" opacity=".35"/></g></svg>

<svg xmlns="http://www.w3.org/2000/svg" viewBox="0 0 16 16">
  <path
     style="fill:#555753"
     d="M 8.1289062 1 C 4.1551057 1 0.601126 3 0 6 L 4.0273438 8 C 4.3629198 6.727391 5.6549197 5 8.1289062 5 C 10.602894 5 12.230469 6.535633 12.230469 8 L 16 6 C 14.973711 3.009657 11.701475 1 8.1289062 1 z M 0 10 L 0 16 L 16 16 L 16 10 L 0 10 z M 2 12 L 14 12 L 14 14 L 2 14 L 2 12 z "
     />
  <path
     style="opacity:0.35;fill:#555753"
     d="m 2,12 v 2 h 12 v -2 z"
     />
</svg>
